icons/shopping-cart.svg

<svg width="24" height="24" viewBox="0 0 24 24" fill="none" xmlns="http://www.w3.org/2000/svg">
<path fill-rule="evenodd" clip-rule="evenodd" d="M2 3C2 2.44772 2.44772 2 3 2H5C5.55228 2 6 2.44772 6 3V15H18.256L20.656 7H9C8.44772 7 8 6.55228 8 6C8 5.44772 8.44772 5 9 5H22C22.3161 5 22.6136 5.14946 22.8023 5.40307C22.991 5.65668 23.0487 5.98457 22.9578 6.28735L19.9578 16.2873C19.8309 16.7103 19.4416 17 19 17H5C4.44772 17 4 16.5523 4 16V4H3C2.44772 4 2 3.55228 2 3ZM4 21C4 19.8954 4.89543 19 6 19C7.10457 19 8 19.8954 8 21C8 22.1046 7.10457 23 6 23C4.89543 23 4 22.1046 4 21ZM16 21C16 19.8954 16.8954 19 18 19C19.1046 19 20 19.8954 20 21C20 22.1046 19.1046 23 18 23C16.8954 23 16 22.1046 16 21Z" fill="black"/>
</svg>

<svg
  width="24"
  height="24"
  viewBox="0 0 24 24"
  xmlns="http://www.w3.org/2000/svg"
>
  <path
    fill-rule="evenodd"
    clip-rule="evenodd"
    d="M2 3a1 1 0 0 1 1-1h2a1 1 0 0 1 1 1v12h12.256l2.4-8H9a1 1 0 0 1 0-2h13a1 1 0 0 1 .958 1.287l-3 10A1 1 0 0 1 19 17H5a1 1 0 0 1-1-1V4H3a1 1 0 0 1-1-1zm2 18a2 2 0 1 1 4 0 2 2 0 0 1-4 0zm12 0a2 2 0 1 1 4 0 2 2 0 0 1-4 0z"
  />
</svg>
